X: 246
T: Xiao guafu Shangfen
L: 1/8
M: 4/4
K: Bb
b a c' f'b2g f [I:setbarnb 1]| 
b b f cf4 | 
b a c' f' b c' g f | 
b b f cf4 | 
f fb2c' f' c' b | 
b a c' f'2<a2z | 
cf2b c' f' b a | 
b f f cB4 |]

@@@ Tune index: 9120
